!!!OTL@@DE: Sommers letzte Rose
!!!ONB: Irische Volksweise, Vor 1789
!!!ODT: <1789
!!!OMD: Andante sostenuto
!!!LYR: Moore, Thomas
!!!OCL: Erk, Ludwig
!!!GCO: Deutscher Liederschatz, Band 1
**kern	**kern	**kern
*staff3	*staff2	*staff1
*Ipiano	*Ipiano	*Ivox
*clefF4	*clefG2	*clefG2
*k[b-e-a-]	*k[b-e-a-]	*k[b-e-a-]
*E-:	*E-:	*E-:
*M3/4	*M3/4	*M3/4
*MM72	*MM72	*MM72
4E-\	(8G/ 8e-/L	8.e-/
.	8B-/J)	.
.	.	16f/
=1	=1	=1
2E-\	8r	4g/
.	(8B-/L	.
.	8e-/ 8g/	8.ee-\L
.	8B-/J)	.
.	.	16dd\Jk
4AA-/ 4E-/	(8e-/ 8a-/L	8.cc\L
.	8c/J)	.
.	.	16b-\Jk
=2	=2	=2
2EE-/ 2E-/	(8e-/ 8g/L	4b-\
.	8B-/	.
.	8e-/ 8g/	4g/
.	8B-/J)	.
4E-\	(8G/ 8e-/L	8.e-/L
.	8B-/J)	.
.	.	16f/Jk
=3	=3	=3
2BB-/	8r	(8g/
.	(8B-/L	4b-/)
.	8e-/ 8g/	.
.	8B-/J)	8g/
4BB-/	(8A-/ 8d/L	8.f/L
.	8B-/J)	.
.	.	16e-/Jk
=4	=4	=4
2EE-/ 2BB-/	(8G'/ 8e-'/L	2e-'/
.	8B-/	.
.	8G/ 8e-/	.
.	8B-/J)	.
4E-\	(8G/ 8e-/L	8.e-/
.	8B-/J)	.
.	.	16f/
=5	=5	=5
2E-\	8e-/ 8g/L	4g/
.	8B-/	.
.	8e-/ 8g/	8.ee-\L
.	8B-/J	.
.	.	16dd\Jk
4E-\	8e-/ 8a-/L	8.cc\L
.	8c/J	.
.	.	16b-\Jk
=6	=6	=6
2E-\	8e-/ 8g/L	4b-\
.	8B-/	.
.	8e-/ 8g/	8g/
.	8B-/J	8r
4C/	8An/ 8e-/L	8.e-/L
.	8F/J	.
.	.	16f/Jk
=7	=7	=7
2BB-/	8r	(8g/
.	8B-/L	4b-\)
.	8G/ 8e-/	.
.	8B-/J	16a-/LL
.	.	16g/JJ
4BB-/	8A-/ 8d/L	12g/L
.	.	8f/J
.	8B-/J	.
.	.	24e-/
=8	=8	=8
2EE-/ 2BB-/	8G/ 8e-/L	4.e-'/
.	8B-/	.
.	8e-/ 8g/	.
.	8B-/J	8r
4E-\	8.g/ 8.b-/L	8.b-\
.	16e-/ 16g/Jk	16g/
=9	=9	=9
*^	*^	*
8r	2E-\	2r	4.g\ 4.ee-\	4.ee-\
8B-/	.	.	.	.
8e-/L	.	.	.	.
8B-/J	.	.	8b-\ 8dd\	8dd\
8c/L	4E-\	(8.cc/L	8a-\L	8.cc\L
8d/J	.	.	8f\J	.
.	.	16b-/Jk)	.	16b-\Jk
*	*	*v	*v	*
=10	=10	=10	=10
8e-/L	2E-\	4g/ (4b-/	4b-\
8B-/	.	.	.
8e-/	.	8e-/ 8g/)	8g/
8B-/J	.	8r	8r
4r	8E-\L	8.g/ 8.b-/L	8.b-/L
.	8D\J	.	.
.	.	16e-/ 16g/Jk	16g/Jk
=11	=11	=11	=11
8r	4.C\	4.e-/ 4.g/ 4.ee-/	4.ee-\
8G/	.	.	.
8c/L	.	.	.
8FF/ 8F/	4.r	8f/ 8a-/ 8dd/L	8dd\
8GG/ 8G/	.	(8e-/ 8g/ 8cc/	8cc\L
8GG/ 8G/J	.	8d/) 8f/ 8bn/J	8bn\J
*v	*v	*	*
=12	=12	=12
2C;\ 2G;\	(8.e-/ 8.cc/L	(8.cc\L
.	16f/ 16dd/Jk	16dd\Jk
.	4g;/) 4ee-;/	4ee-;\)
4E-\	8G/ 8e-/L	8.e-/
.	8B-/J	.
.	.	16f/
=13	=13	=13
2E-\	8r	4g/
.	(8B-/L	.
.	8e-/ 8g/	8.ee-\L
.	8B-/J)	.
.	.	16dd\Jk
4AA-/ 4E-/	(8e-/ 8a-/L	8.cc\L
.	8c/J)	.
.	.	16b-\Jk
=14	=14	=14
2EE-/ 2E-/	(8e-/ 8g/L	4b-\
.	8B-/	.
.	8e-/ 8g/	4g/
.	8B-/J)	.
4CC/ 4C/	8An/ 8e-/L	8.e-/L
.	8F/J	.
.	.	16f/Jk
=15	=15	=15
2BBB-/ 2BB-/	8G/ 8e-/L	(8g/
.	8B-/	4b-/)
.	8G/ 8e-/	.
.	8B-/J	8g/
4BBB-/ 4BB-/	8A-/ 8d/L	8.f/L
.	8B-/J	.
.	.	16e-/Jk
=16	=16	=16
4EE-/	4G/ 4e-/	4e-/
4r	4r	4r
==	==	==
*-	*-	*-
!!!ENC: Craig Stuart Sapp
!!!END: 2004/05/26/
!!!EFL: 069/651
